X:105
T:Oh Hag You Have Killed Me
Z: id:dc-jig-86
M:6/8
L:1/8
K:D Mixolydian
AG|FDD c2A|ded cAG|ABA ABG|ABA ABG|!
FDD c2A|ded cAF|GFG GcA|GFG G:|!
Bd|f3 g3|afd cAG|ABA ABG|ABA ABd|!
f3 g3|afd cAF|GFG GcA|GFG G:|!

